src/assets/svg/background-bottom.svg

<svg width="1600" height="1225" fill="none" xmlns="http://www.w3.org/2000/svg"><path d="M1600 1225H0l.001-997.001L1600 16.999V1225z" fill="#172755"/><g opacity=".07" fill="#8794BA"><path d="M2429.54 657.483C2248.46 393.305 1944.47 220 1600 220c-555.05 0-1005 449.953-1005 1005 0 80.75 9.524 159.28 27.509 234.52l511.781-511.788c49.06-49.06 128.61-49.06 177.67 0l413.66 413.668 703.92-703.917z"/><path d="M2548.99 893.356l-734.53 734.534c-49.06 49.06-128.61 49.06-177.67 0l-413.67-413.67-500.777 500.79C894.264 2022.28 1222.87 2230 1600 2230c555.05 0 1005-449.95 1005-1005 0-116.21-19.72-227.813-56.01-331.644z"/></g></svg>

<svg width="1600" height="1225" viewBox="0 0 1600 1225" fill="none" xmlns="http://www.w3.org/2000/svg">
<path d="M1600 1225L0.000732422 1225L0.00106372 227.999L1600 16.9987L1600 1225Z" fill="#172755"/>
<g opacity="0.07">
<path d="M2429.54 657.483C2248.46 393.305 1944.47 220 1600 220C1044.95 220 595 669.953 595 1225C595 1305.75 604.524 1384.28 622.509 1459.52L1134.29 947.732C1183.35 898.672 1262.9 898.672 1311.96 947.732L1725.62 1361.4L2429.54 657.483Z" fill="#8794BA"/>
<path d="M2548.99 893.356L1814.46 1627.89C1765.4 1676.95 1685.85 1676.95 1636.79 1627.89L1223.12 1214.22L722.343 1715.01C894.264 2022.28 1222.87 2230 1600 2230C2155.05 2230 2605 1780.05 2605 1225C2605 1108.79 2585.28 997.187 2548.99 893.356Z" fill="#8794BA"/>
</g>
</svg>
